packages/ffe-icons/icons/open/300/md/wine_bar.svg

<svg xmlns="http://www.w3.org/2000/svg" height="24" viewBox="0 -960 960 960" width="24"><path d="M450.001-200v-172.462q-86-13.616-139.154-77.5Q257.694-513.846 257.694-600v-183.693q0-15.613 10.394-25.959 10.394-10.347 25.759-10.347h372.306q15.365 0 25.759 10.395 10.394 10.394 10.394 25.759V-600q0 86.154-53.153 150.038-53.154 63.884-139.154 77.5V-200h86.155q12.749 0 21.374 8.629 8.625 8.628 8.625 21.384 0 12.755-8.625 21.37-8.625 8.616-21.374 8.616H363.846q-12.749 0-21.374-8.629-8.625-8.629-8.625-21.384 0-12.756 8.625-21.371Q351.097-200 363.846-200h86.155ZM480-429.999q59.462 0 103.77-40.155 44.308-40.154 54.846-99.847H321.384q10.538 59.693 54.846 99.847 44.308 40.155 103.77 40.155Zm-162.308-200h324.616V-760H317.692v130.001Zm162.308 200Z"/></svg>

<svg xmlns="http://www.w3.org/2000/svg" height="24" viewBox="0 -960 960 960" width="24"><path d="M450-200v-172.46q-86-13.62-139.15-77.5-53.16-63.89-53.16-150.04v-183.69q0-15.62 10.4-25.96Q278.48-820 293.85-820h372.3q15.37 0 25.76 10.4 10.4 10.39 10.4 25.76V-600q0 86.15-53.16 150.04Q596-386.08 510-372.46V-200h86.15q12.75 0 21.38 8.63 8.62 8.63 8.62 21.38 0 12.76-8.62 21.37-8.63 8.62-21.38 8.62h-232.3q-12.75 0-21.38-8.63-8.62-8.63-8.62-21.38 0-12.76 8.62-21.37 8.63-8.62 21.38-8.62H450Zm30-230q59.46 0 103.77-40.15 44.31-40.16 54.85-99.85H321.38q10.54 59.69 54.85 99.85Q420.54-430 480-430ZM317.69-630h324.62v-130H317.69v130ZM480-430Z"/></svg>
